build/img/purchase/purchase-0.svg

<svg width="60" height="60" viewBox="0 0 60 60" fill="none" xmlns="http://www.w3.org/2000/svg">
<path d="M45.6153 39.691C43.6551 37.7557 41.2079 37.7557 39.2602 39.691C37.7744 41.1642 36.2887 42.6375 34.8279 44.1358C34.4283 44.5478 34.0912 44.6352 33.6043 44.3605C32.6429 43.8361 31.6191 43.4116 30.6952 42.8373C26.3877 40.128 22.7794 36.6445 19.5832 32.7241C17.9975 30.7764 16.5867 28.6913 15.6003 26.344C15.4006 25.8696 15.438 25.5575 15.8251 25.1704C17.3108 23.7346 18.7591 22.2613 20.2199 20.788C22.2551 18.7404 22.2551 16.3432 20.2074 14.2831C19.0463 13.1095 17.8852 11.9608 16.724 10.7872C15.5254 9.5886 14.3393 8.37752 13.1282 7.1914C11.168 5.28113 8.72085 5.28113 6.77313 7.20389C5.27488 8.67717 3.83905 10.1879 2.31583 11.6362C0.904977 12.9722 0.193307 14.6077 0.0434821 16.518C-0.193741 19.6269 0.56787 22.561 1.64162 25.4201C3.83905 31.3382 7.18515 36.5946 11.2429 41.414C16.724 47.9313 23.2664 53.0878 30.9199 56.8085C34.3659 58.4815 37.9368 59.7675 41.8197 59.9798C44.4916 60.1296 46.8139 59.4554 48.6742 57.3703C49.9477 55.947 51.3836 54.6485 52.732 53.2876C54.7297 51.265 54.7421 48.8178 52.757 46.8201C50.3847 44.4354 48 42.0632 45.6153 39.691Z" fill="#5D5D5D"/>
<path d="M42.671 27.4751C43.0705 28.7018 44.2609 29.5645 45.5326 29.3473C46.8055 29.13 47.6743 27.916 47.3146 26.6758C46.3488 23.3466 44.5615 20.3315 42.0819 17.8417C39.4315 15.1914 36.2019 13.3502 32.6393 12.4379C31.3878 12.1174 30.2003 13.0229 30.021 14.3023C29.8417 15.5815 30.7408 16.7469 31.9809 17.1086C34.5381 17.8547 36.8606 19.2252 38.7858 21.1504C40.5782 22.9428 41.8973 25.0992 42.671 27.4751Z" fill="#07BBF0"/>
<path d="M50.4346 9.71366C45.6712 4.95017 39.776 1.75895 33.2605 0.400106C31.9963 0.136452 30.8121 1.0363 30.6329 2.31519C30.4535 3.59475 31.3485 4.76801 32.6103 5.04611C38.1157 6.25955 43.0998 8.99459 47.1385 13.0223C50.9416 16.8254 53.6033 21.5034 54.908 26.658C55.2244 27.908 56.4214 28.7654 57.6924 28.5484C58.9653 28.331 59.8282 27.1191 59.5233 25.8642C58.0387 19.7532 54.9241 14.2142 50.4346 9.71366Z" fill="#07BBF0"/>
</svg>

<svg width="60" height="60" fill="none" xmlns="http://www.w3.org/2000/svg"><path d="M45.615 39.691c-1.96-1.935-4.407-1.935-6.355 0a370.748 370.748 0 0 0-4.432 4.445c-.4.412-.737.5-1.224.224-.961-.524-1.985-.948-2.909-1.523-4.307-2.709-7.916-6.193-11.112-10.113-1.585-1.948-2.996-4.033-3.983-6.38-.2-.474-.162-.787.225-1.174 1.486-1.435 2.934-2.909 4.395-4.382 2.035-2.048 2.035-4.445-.013-6.505-1.16-1.173-2.322-2.322-3.483-3.496-1.199-1.198-2.385-2.41-3.596-3.596-1.96-1.91-4.407-1.91-6.355.013-1.498 1.473-2.934 2.984-4.457 4.432C.905 12.972.193 14.608.043 16.518c-.237 3.109.525 6.043 1.599 8.902 2.197 5.918 5.543 11.175 9.6 15.994 5.482 6.517 12.024 11.674 19.678 15.395 3.446 1.672 7.017 2.959 10.9 3.17 2.672.15 4.994-.524 6.854-2.609 1.274-1.423 2.71-2.721 4.058-4.082 1.998-2.023 2.01-4.47.025-6.468a1927.795 1927.795 0 0 0-7.142-7.129z" fill="#5D5D5D"/><path d="M42.671 27.475c.4 1.227 1.59 2.09 2.862 1.872 1.273-.217 2.141-1.431 1.782-2.671a20.634 20.634 0 0 0-5.233-8.834c-2.65-2.65-5.88-4.492-9.443-5.404-1.251-.32-2.439.585-2.618 1.864-.18 1.28.72 2.445 1.96 2.807a15.874 15.874 0 0 1 6.805 4.041 15.871 15.871 0 0 1 3.885 6.325zM50.435 9.714C45.67 4.95 39.776 1.759 33.26.4c-1.264-.264-2.448.636-2.627 1.915-.18 1.28.716 2.453 1.977 2.731C38.116 6.26 43.1 8.995 47.14 13.022c3.803 3.803 6.464 8.481 7.769 13.636.316 1.25 1.513 2.107 2.784 1.89 1.273-.217 2.136-1.429 1.831-2.684-1.484-6.11-4.599-11.65-9.088-16.15z" fill="#07BBF0"/></svg>
